public/img/clients/ttc.svg

<svg width="200" height="100" viewBox="0 0 200 100" fill="none" xmlns="http://www.w3.org/2000/svg">
<path fill-rule="evenodd" clip-rule="evenodd" d="M60.03 17H138.9L133.14 32H142.82L133.29 49H182.9L164.39 73.3H119.54C116.42 77.2 111.54 79.82 106.23 81.01C100.394 82.3148 94.3041 81.898 88.7 79.81C85.0734 78.5111 81.8618 76.2629 79.4 73.3H34.54L16 49H65.63L56.1 32H65.79L60.03 17ZM64.4 20L70.16 35H61.22L70.75 52H22.06L36.06 70.3H80.9L81.35 70.88C83.5164 73.6781 86.438 75.7982 89.77 76.99C94.828 78.8719 100.323 79.2471 105.59 78.07C110.68 76.93 115.05 74.41 117.59 70.91L118.04 70.29H162.9L176.84 51.99H128.17L137.7 34.99H128.77L134.53 19.99L64.4 20ZM98.4 59.55C98.468 59.13 98.502 58.705 98.5 58.28H94.43C95.7133 58.8473 97.0545 59.2732 98.43 59.55H98.4ZM98.5 55.03V45.59C98.07 45.59 97.63 45.72 97.18 45.81V51.37C97.14 53.18 97.57 54.37 98.47 55.03H98.5ZM26.95 54.37L37.22 67.85H79.09L71.54 54.37H26.95ZM98.47 42.64V40.97H97.15V42.63H98.06C98.196 42.615 98.334 42.615 98.47 42.63V42.64ZM91.15 51.37V48.37C90.5215 48.8372 90.0051 49.4387 89.6384 50.1307C89.2717 50.8226 89.0638 51.5876 89.03 52.37C89.053 53.28 89.357 54.16 89.9 54.89C90.355 54.4317 90.7029 53.8785 90.9191 53.2699C91.1352 52.6614 91.214 52.0126 91.15 51.37ZM127.38 54.37L119.83 67.85H161.7L171.97 54.37H127.38ZM67.9 22.45L84.72 66.37C85.8608 69.3547 87.8808 71.9227 90.5128 73.7344C93.1448 75.5461 96.2647 76.5161 99.46 76.5161C102.655 76.5161 105.775 75.5461 108.407 73.7344C111.039 71.9227 113.059 69.3547 114.2 66.37L131.03 22.54L67.9 22.45ZM113.95 54.87L115.65 56.5C113.008 59.1472 109.741 61.0839 106.15 62.13C106.989 62.5224 107.922 62.668 108.84 62.55V65.05H94.03V62.55C94.363 62.57 94.697 62.57 95.03 62.55C88.93 61.55 82.15 58.65 82.15 52.17C82.15 47.55 86.47 44.85 91.15 43.54V41.17C89.7282 41.7193 88.5026 42.6803 87.63 43.93L86.03 42.37L89.63 37.62H91.15V34.05H85.34C83.2 34.05 81.55 35.47 80.34 37.05L78.74 35.48L82.34 30.74H105.94L109.53 35.49L107.93 37.05C106.71 35.47 105.07 34.05 102.93 34.05H97.14V37.59H113.27L116.85 42.34L115.25 43.9C114.03 42.32 112.38 40.9 110.25 40.9H104.47V43.37C105.53 43.61 106.58 43.88 107.62 44.22C108.368 44.518 109.157 44.7 109.96 44.76C110.265 44.7839 110.571 44.7181 110.839 44.5707C111.107 44.4232 111.327 44.2005 111.47 43.93L115.84 48.88L113.84 50.05C111.95 47.4 108.46 46.05 104.47 45.6V58.22C104.473 58.706 104.517 59.191 104.6 59.67C108.148 59.1317 111.427 57.4623 113.95 54.91V54.87Z" fill="#050505"/>
</svg>

<svg xmlns="http://www.w3.org/2000/svg" focusable="false" role="img" viewBox="0 0 200 100" fill="currentColor">
  <path fill-rule="evenodd" d="M60.03 17h78.87l-5.76 15h9.68l-9.53 17h49.61l-18.51 24.3h-44.85c-3.12 3.9-8 6.52-13.31 7.71a30.9 30.9 0 01-17.53-1.2 21.53 21.53 0 01-9.3-6.51H34.54L16 49h49.63L56.1 32h9.69l-5.76-15zm4.37 3l5.76 15h-8.94l9.53 17H22.06l14 18.3H80.9l.45.58a18.55 18.55 0 008.42 6.11 27.91 27.91 0 0015.82 1.08c5.09-1.14 9.46-3.66 12-7.16l.45-.62h44.86l13.94-18.3h-48.67l9.53-17h-8.93l5.76-15L64.4 20zm34 39.55c.068-.42.102-.845.1-1.27h-4.07a19.32 19.32 0 004 1.27h-.03zm.1-4.52v-9.44c-.43 0-.87.13-1.32.22v5.56c-.04 1.81.39 3 1.29 3.66h.03zm-71.55-.66l10.27 13.48h41.87l-7.55-13.48H26.95zm71.52-11.73v-1.67h-1.32v1.66h.91c.136-.015.274-.015.41 0v.01zm-7.32 8.73v-3a5.267 5.267 0 00-2.12 4c.023.91.327 1.79.87 2.52a4.38 4.38 0 001.25-3.52zm36.23 3l-7.55 13.48h41.87l10.27-13.48h-44.59zM67.9 22.45l16.82 43.92a15.78 15.78 0 0029.48 0l16.83-43.83-63.13-.09zm46.05 32.42l1.7 1.63a22.189 22.189 0 01-9.5 5.63 4.88 4.88 0 002.69.42v2.5H94.03v-2.5c.333.02.667.02 1 0-6.1-1-12.88-3.9-12.88-10.38 0-4.62 4.32-7.32 9-8.63v-2.37a7.66 7.66 0 00-3.52 2.76l-1.6-1.56 3.6-4.75h1.52v-3.57h-5.81c-2.14 0-3.79 1.42-5 3l-1.6-1.57 3.6-4.74h23.6l3.59 4.75-1.6 1.56c-1.22-1.58-2.86-3-5-3h-5.79v3.54h16.13l3.58 4.75-1.6 1.56c-1.22-1.58-2.87-3-5-3h-5.78v2.47c1.06.24 2.11.51 3.15.85.748.298 1.537.48 2.34.54a1.57 1.57 0 001.51-.83l4.37 4.95-2 1.17c-1.89-2.65-5.38-4-9.37-4.45v12.62c.003.486.047.971.13 1.45a16.661 16.661 0 009.35-4.76v-.04z" clip-rule="evenodd"/>
</svg>
